X: 57
T:Ringlender fra Gudbrandsdalen
M:C|
L:1/8
Q:280
C:trad. (etter Hans W. Brimi)
R:Ringlender (reinlender)
O:Norway
A:Gudbrandsdalen
Z:Transcribed by Frank Nordberg - http://www.musicaviva.com
K:G
"G"B>c BA B>c BA|"G"B>c BAB2G2|"G"B2B2"D"A2(DF)|"D"A2(Ac)"G"B2G2|
"G"B>c BA B>c BA|"G"B>c BAB2G2|"G"B2B2"D"A2(DF)|"G"G2G2G2z2:|
|:"G"B>c de "D"d2(dc)|"D"A2(Ac)"G"B2G2|"G"B2B2"D"A2(DF)|"D"A2(Ac)"G"B2G2
|
"G"B>c de "D"d2(dc)|"D"A2(Ac)"G"B2G2|"G"B2B2"D"A2(DF)|"G"G2G2G2z2:|]
W:
W: From "Falaleiro" http://home.t-online.de/home/pheld/homepage.htm
